!!!!SEGMENT: pl-kk--kk-i-382--015-001_anonim-nro-5-kyrie.krn
!!!id: 18xx:1479
!!!COM: Anonim
!!!OTL: Nro 5 Kyrie
!!!PDT:
!!!SMS-siglum: PL-Kk
!!!SMS-shelfmark: Kk.I.382
!!!NIFC-rismID: 1001139098
!!!URL-scan: http://repozytorium.nifc.pl/skany/pl-kk-nut--i-382
!!!ONB-nifc: UWAGA: obsada: S (T 1), A (B 1), T 2, B 2; S (T 1): skan 0014; A (B 1): skan 0159; T 2: skan 0086; B 2: skan 0231
!!!SMS-variant:
!!!SMS-altvar:
**kern	**text	**kern	**text	**kern	**text	**kern	**text
*part4	*part4	*part3	*part3	*part2	*part2	*part1	*part1
*staff4	*staff4	*staff3	*staff3	*staff2	*staff2	*staff1	*staff1
*I"Basso II	*	*I"Tenore II	*	*I"Alto vel Basso I	*	*I"Soprano vel Tenore I.	*
*I'Basso II	*	*I'Tenore II	*	*I'Alto vel Basso I	*	*I'Soprano vel Tenore I.	*
*clefF4	*	*clefC4	*	*clefC3	*	*clefC1	*
*k[]	*	*k[]	*	*k[]	*	*k[]	*
*M4/4	*	*M4/4	*	*M4/4	*	*M4/4	*
*met(c)	*	*met(c)	*	*met(c)	*	*met(c)	*
=1	=1	=1	=1	=1	=1	=1	=1
!LO:TX:t=P:problem:8\right:global	!	!LO:TX:t=P:problem:4\right:global	!	!LO:TX:t=P:problem:4\right:global	!	!LO:TX:t=P:problem:4\right:global	!
!LO:TX:rj:a:t=Adagio.	!	!LO:TX:rj:a:t=in C.	!	!LO:TX:rj:a:t=Adagio	!	!LO:TX:rj:a:t=Adagio.	!
!	!	!LO:TX:rj:a:t=Adagio.	!	!	!	!	!
(8C\L	Ky-	4.c\	Ky-	4.e\	Ky-	4.g\	Ky-
8E\J)	.	.	.	.	.	.	.
(8G\L	-ri-	.	.	.	.	.	.
!	!	!LO:TX:t=P:problem:8\right:global	!	!LO:TX:t=P:problem:8\right:global	!	!LO:TX:t=P:problem:8\right:global	!
8c\J)	.	8c\	-ri-	8e\	-ri-	8g\	-ri-
4C/	-e	8c\	-e	8e\	-e	4g\	-e
.	.	8c\	e-	8e\	e-	.	.
!	!	!LO:TX:t=P:problem:16\right:global	!	!LO:TX:t=P:problem:16\right:global	!	!	!
4r	.	(16c\LL	-lei-	(16e\LL	-lei-	4r	.
.	.	16d\JJ)	.	16f\JJ)	.	.	.
.	.	(16d\LL	-son	(16f\LL	-son	.	.
.	.	16e\JJ)	.	16g\JJ)	.	.	.
=2	=2	=2	=2	=2	=2	=2	=2
(8GG/L	Ky-	4.d\	Ky-	4.g\	Ky-	4.b\	Ky-
8BB/J)	.	.	.	.	.	.	.
(8D\L	-ri-	.	.	.	.	.	.
8G\J)	.	8d\	-ri-	8f\	-ri-	8b\	-ri-
!LO:TX:t=P:problem:4\right:global	!	!	!	!	!	!	!
4G\	-e	8d\	-e	8f\	-e	4b\	-e
.	.	8d\	e-	8f\	e-	.	.
4r	.	(16d\LL	-le-	(16f\LL	-le-	4r	.
.	.	16c\JJ)	.	16e\JJ)	.	.	.
.	.	(16c\LL	-i-	(16e\LL	-i-	.	.
.	.	16B\JJ)	.	16d\JJ)	.	.	.
!	!	!	!	!LO:TX:rj:b:i:t=V&colon;S&colon;	!	!	!
!	!	!	!	!LO:PB:g=original	!	!	!
=3	=3	=3	=3	=3	=3	=3	=3
8r	.	4c\	-son	8e\	-son	2r	.
(8C\L	e-	.	.	8r	.	.	.
8E\	.	4r	.	4r	.	.	.
8G\J)	.	.	.	.	.	.	.
*2\right	*	*	*	*	*	*	*
!LO:TX:t=P:problem:2\right:global	!	!	!	!	!	!	!
2B-X\	-lei-	8r	.	8r	.	8r	.
.	.	(16c\LL	e-	(16e\LL	e-	8cc\	e-
.	.	16d\JJ)	.	16f\JJ)	.	.	.
.	.	(16e\LL	-le-	(16g\LL	-le-	4cc\	-lei-
.	.	16d\JJ)	.	16f\JJ)	.	.	.
.	.	(16c\LL	-i-	(16e\LL	-i-	.	.
.	.	16B-X\JJ)	.	16g\JJ)	.	.	.
!	!	!LO:LB:g=original	!	!	!	!	!
=4	=4	=4	=4	=4	=4	=4	=4
8A\	-son	4A\	-son	8f\	-son	8cc\	-son
(8D\L	e-	.	.	8r	.	8r	.
8F#X\	.	4r	.	4r	.	4r	.
8A\J)	.	.	.	.	.	.	.
2c\	-lei-	8r	.	8r	.	8r	.
.	.	(16d\LL	e-	(16f#X\LL	e-	8dd\	e-
.	.	16e\JJ)	.	16g\JJ)	.	.	.
.	.	(16f#X\LL	-le-	(16a\LL	-le-	4dd\	-lei-
.	.	16e\JJ)	.	16g\JJ)	.	.	.
.	.	(16d\LL	-i-	(16f#\LL	-i-	.	.
.	.	16c\JJ)	.	16a\JJ)	.	.	.
=5	=5	=5	=5	=5	=5	=5	=5
4B\	-son	4Bn\	-son	4g\	-son	4dd\	-son
8G\	Ky-	8B\	Ky-	8g\	Ky-	8dd\	Ky-
8G\	-ri-	8B\	-ri-	8g\	-ri-	8dd\	-ri-
!LO:LB:g=original	!	!	!	!	!	!LO:LB:g=original	!
4A\	-e	4c\	-e	4f#X\	-e	4dd\	-e
4B\	e-	4d\	e-	4fn\	e-	4g\	e-
!	!	!	!	!LO:LB:g=original	!	!	!
=6	=6	=6	=6	=6	=6	=6	=6
*	*	*2\right	*	*2\right	*	*2\right	*
!	!	!LO:TX:t=P:problem:2\right:global	!	!LO:TX:t=P:problem:2\right:global	!	!LO:TX:t=P:problem:2\right:global	!
(8c\L	-le-	2c\	-lei-	2e\	-lei-	2g\	-lei-
8G\J)	.	.	.	.	.	.	.
(8E\L	-i-	.	.	.	.	.	.
8C\J)	.	.	.	.	.	.	.
4GG/	-son	4B\	-son	4d\	-son	4g\	-son
8r	.	8r	.	8r	.	8r	.
8G\	e-	8B\	e-	8d\	e-	8g\	e-
=7	=7	=7	=7	=7	=7	=7	=7
4F#X\	-le-	(4c\	-le-	4e-X\	-le-	4a\	-le-
2G\	.	2B\)	.	2d\	.	2g\	.
4F#\	-i-	4c\	-i	4e-\	-i-	4a\	-i-
=8	=8	=8	=8	=8	=8	=8	=8
1G\	-son	1B\	son	1d\	-son	1g\	-son.
!	!	!LO:TX:rj:b:t=Allegro.	!	!	!	!	!
!	!	!LO:LB:g=original	!	!	!	!	!
==9	==9	==9	==9	==9	==9	==9	==9
!LO:TX:rj:a:t=Allegro.	!	!	!	!LO:TX:rj:a:t=Allegro.	!	!LO:TX:rj:a:t=Allegro.	!
4C\	Ky-	4c\	Ky-	4c\	Ky-	4cc\	Ky-
4E\	-ri-	4e\	-ri-	4e\	-ri-	4ee\	-ri-
4G\	-e	4g\	-e	4g\	-e	4gg\	-e
4r	.	8r	.	8r	.	4r	.
.	.	8G/	e-	8e\	e-	.	.
=10	=10	=10	=10	=10	=10	=10	=10
4r	.	8A/	-le-	8f\	-le-	4r	.
.	.	8G/	-i-	8e\	-i-	.	.
8r	.	8A\	-son	8f\	-son	8r	.
8GG/	e-	8B\	e-	8d\	e-	8g\	e-
(8C/L	-lei-	8c\	-le-	8e\	-le-	4g\	-lei-
8BB/J)	.	8d\	-i-	8f\	-i-	.	.
4C/	-son	8e\	-son	8g\	-son	8g\	-son
.	.	8r	.	8r	.	8r	.
!LO:LB:g=original	!	!	!	!LO:LB:g=original	!	!LO:LB:g=original	!
=11	=11	=11	=11	=11	=11	=11	=11
4C\	Ky-	4c\	Ky-	4c\	Ky-	4cc\	Ky-
4E\	-ri-	4e\	-ri-	4e\	-ri-	4ee\	-ri-
4G\	-e	4g\	-e	4g\	-e	4gg\	-e
8r	.	8r	.	8r	.	8r	.
8G\	e-	8c\	e-	8g\	e-	8ee\	e-
=12	=12	=12	=12	=12	=12	=12	=12
(8F\L	-le-	2B\	-lei-	4g\	-le-	2dd\	-lei-
8D\J)	.	.	.	.	.	.	.
(8BB/L	-i-	.	.	4g\	-i-	.	.
8GG/J)	.	.	.	.	.	.	.
4C/	-son	4c\	-son	4g\	-son	4ee\	-son
8G\	Ky-	8B\	Ky-	8g\	Ky-	8dd\	Ky-
8G\	-ri-	8B\	-ri-	8g\	-ri-	8dd\	-ri-
=13	=13	=13	=13	=13	=13	=13	=13
8C/	-e	8c\	-e	8g\	-e	8ee\	-e
8D/	e-	8B\	e-	8g\	e-	8dd\	e-
8E\	-le-	8c\	-le-	8g\	-le-	8ee\	-le-
!	!	!LO:LB:g=original	!	!	!	!	!
!	!	!	!	!	!	!LO:TX:t=P:problem:16\right:global	!
8F\	-i-	(16d\LL	-i-	8g\	-i-	16ff\LL	-i-
.	.	16c\JJ)	.	.	.	16ee\JJ	.
4G\	-son	4B\	-son	4g\	-son	4dd\	-son,
4r	.	4r	.	4r	.	4r	.
=14	=14	=14	=14	=14	=14	=14	=14
!LO:TX:b:i:t=1.	!	!	!	!	!	!LO:TX:b:i:t=1.	!
1r	.	2B\	Chri-	2g\	Chri-	1r	.
.	.	(8B\L	-ste	(8d\L	-ste	.	.
.	.	8d\J)	.	8f\J)	.	.	.
.	.	(8c\L	e-	(8e\L	e-	.	.
.	.	8e\J)	.	8g\J)	.	.	.
!LO:LB:g=original	!	!	!	!	!	!LO:LB:g=original	!
=15	=15	=15	=15	=15	=15	=15	=15
8r	.	1d\	-lei-	1f\	-lei-	8r	.
(8G\	e-	.	.	.	.	8b\L	e-
8A\L	.	.	.	.	.	8cc\	.
8G\J)	.	.	.	.	.	8b\J	.
(8A\L	-le-	.	.	.	.	(8cc\L	-le-
8G\J)	.	.	.	.	.	8b\J)	.
(8A\L	-i-	.	.	.	.	(8cc\L	-i-
8B\J)	.	.	.	.	.	8dd\J)	.
!	!	!	!	!LO:LB:g=original	!	!	!
=16	=16	=16	=16	=16	=16	=16	=16
4c\	-son	4c\	-son	4e\	-son	4ee\	-son
4r	.	4c\	Chri-	4e\	Chri-	4r	.
2r	.	(8B\L	-ste	(8d\L	-ste	2r	.
.	.	8d\J)	.	8f\J)	.	.	.
.	.	(8c\L	e-	(8e\L	e-	.	.
.	.	8e\J)	.	8g\J)	.	.	.
=17	=17	=17	=17	=17	=17	=17	=17
8r	.	2d\	-lei-	2f\	-lei-	8r	.
8G\	e-	.	.	.	.	8b\	e-
8A\	-le-	.	.	.	.	8cc\	-le-
8B\	-i-	.	.	.	.	8dd\	-i-
4c\	-son	4c\	-son	4e\	-son	4ee\	-son
4r	.	(8e\L	Chri-	(8g\L	Chri-	4r	.
.	.	8c\J)	.	8e\J)	.	.	.
=18	=18	=18	=18	=18	=18	=18	=18
4r	.	4B\	-ste	4d\	-ste	4r	.
(8B\L	Chri-	4r	.	4r	.	(8dd\L	Chri-
8A\J)	.	.	.	.	.	8cc\J)	.
4G\	-ste	8r	.	8r	.	4b\	-ste
.	.	8B\	e-	8d\	e-	.	.
4r	.	8d\	-le-	8f\	-le-	4r	.
.	.	8B\	-i-	8d\	-i-	.	.
!	!	!LO:LB:g=original	!	!	!	!LO:LB:g=original	!
=19	=19	=19	=19	=19	=19	=19	=19
8r	.	4c\	-son	4e\	-son	8r	.
8c\	e-	.	.	.	.	8ee\	e-
8e\	-le-	4r	.	4r	.	8gg\	-le-
8c\	-i-	.	.	.	.	8ee\	-i-
4G\	-son	8r	.	8r	.	4dd\	-son
.	.	8B\	e-	8d\	e-	.	.
4r	.	8d\	-le-	8f\	-le-	4r	.
.	.	8B\	-i-	8d\	-i-	.	.
!LO:LB:g=original	!	!	!	!LO:LB:g=original	!	!	!
=20	=20	=20	=20	=20	=20	=20	=20
8r	.	4c\	-son	4e\	-son	8r	.
8c\	e-	.	.	.	.	8ee\	e-
8B\	-le-	4r	.	4r	.	8dd\	-le-
8A\	-i-	.	.	.	.	8cc\	-i-
4G\	-son	4r	.	4r	.	4b\	-son
4r	.	8r	.	8r	.	4r	.
.	.	8e\	e-	8g\	e-	.	.
=21	=21	=21	=21	=21	=21	=21	=21
4A\	Ky-	4e\	-le-	4g\	-le-	2r	.
4d\	-ri-	4d\	-i-	4f\	-i-	.	.
4G\	-e	4d\	-son	4f\	-son	4r	.
4c\	e-	4c\	e-	4e\	e-	4g\	e-
=22	=22	=22	=22	=22	=22	=22	=22
4F\	-le-	(8d\L	-le-	(8f\L	-le-	4a\	-le-
.	.	8c\J)	.	8e\J)	.	.	.
4G\	-i-	(8c\L	-i-	(8e\L	-i-	4b\	-i-
.	.	8B\J)	.	8d\J)	.	.	.
4A\	-son	4c\	-son	4e\	-son	4cc\	-son
4r	.	8r	.	8r	.	4r	.
.	.	8e\	e-	8g\	e-	.	.
=23	=23	=23	=23	=23	=23	=23	=23
4A\	Ky-	4e\	-le-	4g\	-le-	2r	.
4d\	-ri-	4d\	-i-	4f\	-i-	.	.
4G\	-e	4d\	-son	4f\	-son	4r	.
4c\	e-	4c\	e-	4e\	e-	8r	.
.	.	.	.	.	.	8g\	e-
!	!	!LO:LB:g=original	!	!	!	!LO:LB:g=original	!
=24	=24	=24	=24	=24	=24	=24	=24
4F\	-le-	(8d\L	-le-	(8f\L	-le-	4a\	-le-
.	.	8c\J)	.	8e\J)	.	.	.
4G\	-i-	(8c\L	-i-	(8e\L	-i-	4g\	-i-
.	.	8B\J)	.	8d\J)	.	.	.
4C/	-son	4c\	-son	4e\	-son	4g\	-son
!	!	!	!	!LO:LB:g=original	!	!	!
8r	.	8r	.	8r	.	8r	.
8C/	e-	8c\	e-	8e\	e-	8g\	e-
!LO:LB:g=original	!	!	!	!	!	!	!
=25	=25	=25	=25	=25	=25	=25	=25
4C/	-le-	4c\	-le-	4e\	-le-	2g\	-lei-
(8BB/L	-i-	(8d\L	-i-	(8f\L	-i-	.	.
8C/J)	.	8c\J)	.	8e\J)	.	.	.
4BB;/	-son	4d;\	-son	4f;\	-son	4g;\	-son
8r	.	8r	.	8r	.	8r	.
(8G\	e-	8d\	e-	8f\	e-	8b\	e-
=26	=26	=26	=26	=26	=26	=26	=26
8C/L)	.	2c\	-le-	2e\	-le-	(4.g\	-le-
8D/	.	.	.	.	.	.	.
8E/	.	.	.	.	.	.	.
8F/J	.	.	.	.	.	8a\)	.
4G\	-le-	2B\	-i-	2d\	-i-	2g\	-i
4GG/	-i-	.	.	.	.	.	.
=27	=27	=27	=27	=27	=27	=27	=27
1C/	-son.	1c\	-son.	1e\	-son	1g\	son.
==	==	==	==	==	==	==	==
*-	*-	*-	*-	*-	*-	*-	*-
!!!system-decoration: [(s1,s2,s3,s4)]
!!!ENC:Anastazja Marusiak
!!!END:2021-01-28
!!!EED: Leszek Kubiak
!!!EST: 2021-02-03
